assets/img/sections/section-search.svg

<svg width="547" height="138" viewBox="0 0 547 138" fill="none" xmlns="http://www.w3.org/2000/svg">
<path d="M374.152 0C394.544 0 411.075 16.929 411.075 37.8124V137.499H273.575V0H374.152Z" fill="#7AA5E7"/>
<path d="M374.152 0C394.544 0 411.075 16.929 411.075 37.8124V137.499H273.575V0H374.152Z" fill="#7AA5E7"/>
<path d="M509.083 137.5H409.396C409.396 61.5606 470.957 0 546.896 0V99.6871C546.896 120.57 529.967 137.5 509.083 137.5Z" fill="#7AA5E7"/>
<path d="M205.301 137.499C167.331 137.499 136.551 106.719 136.551 68.7496C136.551 30.7803 167.331 0 205.301 0C243.27 0 274.05 30.7803 274.05 68.7496C274.05 106.719 243.27 137.499 205.301 137.499Z" fill="#7AA5E7"/>
<path d="M37.5748 74.2314C54.661 74.2314 68.5121 60.3802 68.5121 43.294C68.5121 26.2078 54.661 12.3567 37.5748 12.3567C20.4886 12.3567 6.63745 26.2078 6.63745 43.294C6.63745 60.3802 20.4886 74.2314 37.5748 74.2314Z" fill="#7AA5E7"/>
<path d="M137.499 0.000732422V137.5H0L137.499 0.000732422Z" fill="#7AA5E7"/>
<path d="M198.067 42.5439C204.006 42.5439 209.06 44.6089 213.183 48.7314C217.305 52.8541 219.37 57.9082 219.37 63.8467C219.37 66.2464 218.988 68.5197 218.22 70.6611C217.537 72.5626 216.632 74.2757 215.505 75.7969L232.747 93.0391C233.481 93.773 233.836 94.708 233.836 95.7822C233.836 96.8567 233.481 97.7923 232.747 98.5264C232.013 99.2604 231.077 99.6152 230.003 99.6152C228.929 99.6151 227.994 99.2602 227.26 98.5264L210.018 81.2842C208.496 82.4114 206.783 83.3165 204.882 83.999C202.74 84.7677 200.467 85.1494 198.067 85.1494C192.129 85.1494 187.075 83.0846 182.952 78.9619C178.83 74.8392 176.765 69.7851 176.765 63.8467C176.765 57.9083 178.83 52.8541 182.952 48.7314C187.075 44.6088 192.129 42.544 198.067 42.5439ZM198.067 50.3682C194.312 50.3682 191.143 51.6734 188.519 54.2979C185.894 56.9223 184.589 60.091 184.589 63.8467C184.589 67.6024 185.894 70.7711 188.519 73.3955C191.143 76.0199 194.312 77.3251 198.067 77.3252C201.823 77.3252 204.992 76.0199 207.616 73.3955C210.241 70.771 211.546 67.6025 211.546 63.8467C211.546 60.0909 210.241 56.9223 207.616 54.2979C204.992 51.6735 201.823 50.3682 198.067 50.3682Z" fill="#5187DF"/>
</svg>

<svg xmlns="http://www.w3.org/2000/svg" width="547" height="138" fill="none" viewBox="0 0 547 138"><path fill="#7aa5e7" d="M374.152 0c20.392 0 36.923 16.929 36.923 37.812V137.5h-137.5V0z"/><path fill="#7aa5e7" d="M374.152 0c20.392 0 36.923 16.929 36.923 37.812V137.5h-137.5V0z"/><path fill="#7aa5e7" d="M509.083 137.5h-99.687c0-75.94 61.561-137.5 137.5-137.5v99.687c0 20.883-16.929 37.813-37.813 37.813M205.301 137.499c-37.97 0-68.75-30.78-68.75-68.75S167.331 0 205.301 0s68.749 30.78 68.749 68.75-30.78 68.749-68.749 68.749M37.575 74.231c17.086 0 30.937-13.85 30.937-30.937 0-17.086-13.851-30.937-30.937-30.937S6.637 26.207 6.637 43.294c0 17.086 13.852 30.937 30.938 30.937"/><path fill="#7aa5e7" d="M137.499 0v137.5H0z"/><path fill="#5187df" d="M198.067 42.544c5.939 0 10.993 2.065 15.116 6.187 4.122 4.123 6.187 9.177 6.187 15.116q.001 3.601-1.15 6.814-1.025 2.854-2.715 5.136l17.242 17.242c.734.734 1.089 1.669 1.089 2.743 0 1.075-.355 2.01-1.089 2.744s-1.67 1.09-2.744 1.09-2.009-.356-2.743-1.09l-17.242-17.242q-2.284 1.69-5.136 2.715-3.214 1.152-6.815 1.15c-5.938 0-10.992-2.064-15.115-6.187s-6.187-9.177-6.187-15.115 2.065-10.993 6.187-15.116c4.123-4.122 9.177-6.187 15.115-6.187m0 7.824c-3.755 0-6.924 1.305-9.548 3.93-2.625 2.624-3.93 5.793-3.93 9.549s1.305 6.924 3.93 9.548c2.624 2.625 5.793 3.93 9.548 3.93s6.925-1.305 9.549-3.93c2.625-2.624 3.93-5.792 3.93-9.548s-1.305-6.925-3.93-9.55c-2.624-2.623-5.793-3.929-9.549-3.929"/></svg>
